actions/24/kmouth-phresebook-new.svg

<?xml version="1.0" encoding="UTF-8" standalone="no"?>
<svg
   width="24"
   height="24"
   version="1.1"
   id="svg11"
   sodipodi:docname="kmouth-phresebook-new.svg"
   inkscape:version="1.1.2 (0a00cf5339, 2022-02-04)"
   xmlns:inkscape="http://www.inkscape.org/namespaces/inkscape"
   xmlns:sodipodi="http://sodipodi.sourceforge.net/DTD/sodipodi-0.dtd"
   xmlns="http://www.w3.org/2000/svg"
   xmlns:svg="http://www.w3.org/2000/svg">
  <sodipodi:namedview
     id="namedview13"
     pagecolor="#000000"
     bordercolor="#666666"
     borderopacity="1.0"
     inkscape:pageshadow="2"
     inkscape:pageopacity="0"
     inkscape:pagecheckerboard="0"
     showgrid="false"
     inkscape:zoom="28.416667"
     inkscape:cx="12"
     inkscape:cy="11.964809"
     inkscape:window-width="1837"
     inkscape:window-height="967"
     inkscape:window-x="0"
     inkscape:window-y="29"
     inkscape:window-maximized="1"
     inkscape:current-layer="g9" />
  <defs
     id="defs3">
    <style
       id="current-color-scheme"
       type="text/css">
   .ColorScheme-Text { color:#eeeeec; } .ColorScheme-Highlight { color:#367bf0; } .ColorScheme-NeutralText { color:#ffcc44; } .ColorScheme-PositiveText { color:#3db47e; } .ColorScheme-NegativeText { color:#dd4747; }
  </style>
  </defs>
  <g
     transform="translate(4,4)"
     id="g9">
    <path
       style="opacity:.35;fill:currentColor"
       class="ColorScheme-Text"
       d="M 3.5,2 C 3.5,2 2,2 2,3.5 V 7.5 C 2,9 3,9 3,9 V 6.5 C 3,5 4.5,5 4.5,5 H 12 V 3.5 C 12,2 10.5,2 10.5,2 Z"
       id="path5" />
    <path
       style="fill:currentColor"
       class="ColorScheme-Text"
       d="m 12.5,6 c 0,0 1.5,0 1.5,1.5 v 4 C 14,13 12.5,13 12.5,13 H 12 l -0.941293,1.255057 v 0 L 9.9415013,14.255335 9,13 H 5.5 C 5.5,13 4,13 4,11.5 v -4 C 4,6 5.5,6 5.5,6 Z M 10,7 H 9 V 9 H 7 v 1 h 2 v 2 h 1 v -2 h 2 V 9 h -2 z"
       id="path7"
       sodipodi:nodetypes="csscccccccssccccccccccccccc" />
  </g>
</svg>

<svg xmlns="http://www.w3.org/2000/svg" width="24" height="24" version="1.1">
 <defs>
  <style id="current-color-scheme" type="text/css">
   .ColorScheme-Text { color:#eeeeec; } .ColorScheme-Highlight { color:#367bf0; } .ColorScheme-NeutralText { color:#ffcc44; } .ColorScheme-PositiveText { color:#3db47e; } .ColorScheme-NegativeText { color:#dd4747; }
  </style>
 </defs>
 <g transform="translate(4,4)">
  <path style="opacity:.35;fill:currentColor" class="ColorScheme-Text" d="M 3.5,2 C 3.5,2 2,2 2,3.5 V 7.5 C 2,9 3,9 3,9 V 6.5 C 3,5 4.5,5 4.5,5 H 12 V 3.5 C 12,2 10.5,2 10.5,2 Z"/>
  <path style="fill:currentColor" class="ColorScheme-Text" d="M 12.5,6 C 12.5,6 14,6 14,7.5 V 11.5 C 14,13 12.5,13 12.5,13 H 12 L 10.5,15 9,13 H 5.5 C 5.5,13 4,13 4,11.5 V 7.5 C 4,6 5.5,6 5.5,6 Z M 10,7 H 9 V 9 H 7 V 10 H 9 V 12 H 10 V 10 H 12 V 9 H 10 Z"/>
 </g>
</svg>
